korla/emblems/scalable/emblem-important.svg

<!DOCTYPE svg  PUBLIC '-//W3C//DTD SVG 1.1//EN'  'http://www.w3.org/Graphics/SVG/1.1/DTD/svg11.dtd'>
<svg style="clip-rule:evenodd;fill-rule:evenodd;stroke-linejoin:round;stroke-miterlimit:1.41421" version="1.1" viewBox="0 0 96 96" xmlns="http://www.w3.org/2000/svg">
 <path d="m43 18c-1.662 0-3 1.338-3 3v30c0 1.662 1.338 3 3 3h10c1.662 0 3-1.338 3-3v-3-24-3c0-1.662-1.423-2.474-3-3h-3-4-3zm0 44c-1.662 0-3 1.338-3 3v10c0 1.662 1.423 2.474 3 3h10c1.662 0 3-1.338 3-3v-3-4-3c0-1.662-1.338-3-3-3h-3-4-3z" style="fill-rule:nonzero;fill:url(#_Linear1)"/>
 <path d="m43 18c-1.662 0-3 1.338-3 3v30c0 1.662 1.338 3 3 3h10c1.662 0 3-1.338 3-3v-3-24-3c0-1.662-1.423-2.474-3-3h-3-4-3zm0 0.969h9.75c0.697 0.238 1.339 0.516 1.719 0.844 0.394 0.339 0.562 0.634 0.562 1.187v30c0 1.14-0.891 2.031-2.031 2.031h-3-4-3c-1.14 0-2.031-0.891-2.031-2.031v-3-24-3c0-1.14 0.891-2.031 2.031-2.031zm0 43.031c-1.662 0-3 1.338-3 3v10c0 1.662 1.423 2.474 3 3h10c1.662 0 3-1.338 3-3v-3-4-3c0-1.662-1.338-3-3-3h-3-4-3zm0 0.969h10c1.14 0 2.031 0.891 2.031 2.031v10c0 1.14-0.891 2.031-2.031 2.031h-3-4-2.75c-0.697-0.238-1.339-0.516-1.719-0.843-0.394-0.34-0.562-0.635-0.562-1.188v-3-4-3c0-1.14 0.891-2.031 2.031-2.031z" style="fill-opacity:.2;fill-rule:nonzero;fill:#500"/>
 <defs>
  <linearGradient id="_Linear1" x2="1" gradientTransform="matrix(3.91887e-15,64,-64,3.91887e-15,48,16)" gradientUnits="userSpaceOnUse">
   <stop style="stop-color:#ad0707" offset="0"/>
   <stop style="stop-color:#f75535" offset="1"/>
  </linearGradient>
 </defs>
</svg>

<?xml version="1.0" encoding="UTF-8" standalone="no"?>
<!DOCTYPE svg PUBLIC "-//W3C//DTD SVG 1.1//EN" "http://www.w3.org/Graphics/SVG/1.1/DTD/svg11.dtd">
<svg width="100%" height="100%" viewBox="0 0 96 96" version="1.1" xmlns="http://www.w3.org/2000/svg" xmlns:xlink="http://www.w3.org/1999/xlink" xml:space="preserve" xmlns:serif="http://www.serif.com/" style="fill-rule:evenodd;clip-rule:evenodd;">
    <g id="layer2" transform="matrix(1,0,0,1,0,80)">
        <g id="path3129" transform="matrix(1,-0,-0,1,0,-80)">
            <use xlink:href="#_Image1" x="35.117" y="13.053" width="25.937px" height="69.923px" transform="matrix(0.997567,0,0,0.998905,0,0)"/>
        </g>
        <path id="rect3734" d="M43,-62C41.338,-62 40,-60.662 40,-59L40,-29C40,-27.338 41.338,-26 43,-26L53,-26C54.662,-26 56,-27.338 56,-29L56,-32L56,-56L56,-59C56,-60.662 54.577,-61.474 53,-62L50,-62L46,-62L43,-62ZM43,-18C41.338,-18 40,-16.662 40,-15L40,-5C40,-3.338 41.423,-2.526 43,-2L53,-2C54.662,-2 56,-3.338 56,-5L56,-8L56,-12L56,-15C56,-16.662 54.662,-18 53,-18L50,-18L46,-18L43,-18Z" style="fill:url(#_Linear2);fill-rule:nonzero;"/>
        <g id="path3956" transform="matrix(1,0,0,1,0,-80)">
            <path d="M43,18C41.338,18 40,19.338 40,21L40,51C40,52.662 41.338,54 43,54L53,54C54.662,54 56,52.662 56,51L56,48L56,24L56,21C56,19.338 54.577,18.526 53,18L50,18L46,18L43,18ZM43,20L52.563,20C53.105,20.203 53.585,20.424 53.781,20.594C54.008,20.789 54,20.739 54,21L54,51C54,51.591 53.591,52 53,52L50,52L46,52L43,52C42.409,52 42,51.591 42,51L42,48L42,24L42,21C42,20.409 42.409,20 43,20ZM43,62C41.338,62 40,63.338 40,65L40,75C40,76.662 41.423,77.474 43,78L53,78C54.662,78 56,76.662 56,75L56,72L56,68L56,65C56,63.338 54.662,62 53,62L50,62L46,62L43,62ZM43,64L53,64C53.591,64 54,64.409 54,65L54,75C54,75.591 53.591,76 53,76L50,76L46,76L43.438,76C42.895,75.797 42.415,75.576 42.219,75.406C41.992,75.211 42,75.261 42,75L42,72L42,68L42,65C42,64.409 42.409,64 43,64Z" style="fill:rgb(85,0,0);fill-opacity:0.1;fill-rule:nonzero;"/>
        </g>
        <g id="path3184" transform="matrix(1,0,0,1,0,-80)">
            <path d="M43,18C41.338,18 40,19.338 40,21L40,51C40,52.662 41.338,54 43,54L53,54C54.662,54 56,52.662 56,51L56,48L56,24L56,21C56,19.338 54.577,18.526 53,18L50,18L46,18L43,18ZM43,18.969L52.75,18.969C53.447,19.207 54.089,19.485 54.469,19.813C54.863,20.152 55.031,20.447 55.031,21L55.031,51C55.031,52.14 54.14,53.031 53,53.031L50,53.031L46,53.031L43,53.031C41.86,53.031 40.969,52.14 40.969,51L40.969,48L40.969,24L40.969,21C40.969,19.86 41.86,18.969 43,18.969ZM43,62C41.338,62 40,63.338 40,65L40,75C40,76.662 41.423,77.474 43,78L53,78C54.662,78 56,76.662 56,75L56,72L56,68L56,65C56,63.338 54.662,62 53,62L50,62L46,62L43,62ZM43,62.969L53,62.969C54.14,62.969 55.031,63.86 55.031,65L55.031,75C55.031,76.14 54.14,77.031 53,77.031L50,77.031L46,77.031L43.25,77.031C42.553,76.793 41.911,76.515 41.531,76.188C41.137,75.848 40.969,75.553 40.969,75L40.969,72L40.969,68L40.969,65C40.969,63.86 41.86,62.969 43,62.969Z" style="fill:rgb(85,0,0);fill-opacity:0.2;fill-rule:nonzero;"/>
        </g>
        <g id="path3966" transform="matrix(1,0,0,1,0,-80)">
            <path d="M43,18C41.338,18 40,19.338 40,21L40,22C40,20.338 41.338,19 43,19L53,19C54.577,19.526 56,20.338 56,22L56,21C56,19.338 54.577,18.526 53,18L50,18L46,18L43,18ZM43,62C41.338,62 40,63.338 40,65L40,66C40,64.338 41.338,63 43,63L53,63C54.662,63 56,64.338 56,66L56,65C56,63.338 54.662,62 53,62L50,62L46,62L43,62Z" style="fill:rgb(85,0,0);fill-opacity:0.3;fill-rule:nonzero;"/>
        </g>
        <g id="path3975" transform="matrix(1,0,0,1,0,-80)">
            <path d="M40,51L40,52C40,53.662 41.338,55 43,55L53,55C54.662,55 56,53.662 56,52L56,51C56,52.662 54.662,54 53,54L50,54L46,54L43,54C41.338,54 40,52.662 40,51ZM40,75L40,76C40,77.662 41.423,78.474 43,79L53,79C54.662,79 56,77.662 56,76L56,75C56,76.662 54.662,78 53,78L50,78L46,78L43,78C41.423,77.474 40,76.662 40,75Z" style="fill:white;fill-opacity:0.8;fill-rule:nonzero;"/>
        </g>
    </g>
    <defs>
        <image id="_Image1" width="26px" height="70px" xlink:href="data:image/png;base64,iVBORw0KGgoAAAANSUhEUgAAABoAAABGCAYAAADSBoRCAAAACXBIWXMAAA7EAAAOxAGVKw4bAAACmElEQVRYhe1Z2XLCMAxcJQEK//+rnTYlifqAlijGV+jxwFgzHnfqYyP5Wi2ChKmqpNpSJiKabEsACIDOakn15RBXL1ZrCHof7AB6K4OVruwLAGC2MllZRGTZADmQAcAJwNHKwUBLHtGbLyuj1TPBBjegN5ALgLMB1XpEsKsB9PZho6qqiCiBGLKTgZwNRNwkOeN6MuQcx3DqYGHrrANDxg+44hbvOQPmAVhOWEN4VdWNR76jGMgHgE/7Owd0APBmkeC6sha4Lw+3tJonnwDeDWhB3DqbFFZzXcWVzWbwDYwvF7fkEfAYYn8GN0ChqS+pU6+qwM1bHtao1R7GH1sDakANqAE1oAbUgBpQA3oNoBxT9RRZjJEW+9UAeQrcYc0IjjZBieT77OGey4ZATA3ZgWnMm7XXpi0+CdvwcQ/E7GHCmlgx39mTiDHlufpxg4ioqi7WyGSXAw9ucM58uuPnYXauoUej85IpZnaRzRgignzYXKtHrvNsncQGMP1n9pYzrgkTN5bZu3zrGRc0+p1AFDTu2TgTuJREw8lrQEIwha2Lb0zdDKXFLwE+2P+GLtCCjlj1oGc3A7WgiWChFnTETQu6YN/25nXD7d27/0/AVtAIRadntSCC+DDu0oL4hd7oaagFcZ4RwBRqQbytY1rQhPztzQv47OZIakGdC0FMC4qFkOsXakHhfFVaEHdSSQvyt/XDQ1ijBS2o04Kym+b1yEkDetpKvO5+Fv6C13GwJyhAHa/jAc3yOn9ueGfV8jr2PWAHr5uxn9fRK8/rNqpxjNeNWC/KP+F1vEQ5gC9s7cPH9yfN68wrEkgO4psS/mAVAwG2gjwj88jrAEBVuZ25GfyLWTKGfxevC3+riPYNPMre9tnY/+YPit/9iGj51j2f2wAAAABJRU5ErkJggg=="/>
        <linearGradient id="_Linear2" x1="0" y1="0" x2="1" y2="0" gradientUnits="userSpaceOnUse" gradientTransform="matrix(3.91887e-15,64,-64,3.91887e-15,48,-64)"><stop offset="0" style="stop-color:rgb(173,7,7);stop-opacity:1"/><stop offset="1" style="stop-color:rgb(247,85,53);stop-opacity:1"/></linearGradient>
    </defs>
</svg>
